!!!COM: Gabriel Faure/
!!!CNT: Francais
!!!TXO: Francais
!!!OTL: Les Matelots
!!!OPS: Op. 2
!!!ONM: No. 2
!!!LYR: The/ophile Gautier
!!!ENC: Jacob Pegg
!!!YOR: Album of Twenty Songs (Vingt Me/lodies,) Volume I
!!!YOR: Edward B. Marks Music Corporation, RCA Building, Radio
!!!YOR: City, New York 20, N.Y.
!!!ODT: 1870/
!!NB: Vocal melody and text only encoded.
!!NB: First instance of melodic material only encoded.
**kern	**silbe
*clef G2	*
*k[b-]	*
*M3/4	*
*MM[allegro]	*
!! animato
!!created: 8/19/03 21:59
!!proofed and posted: 8/20/03 14:43
!!edit time: 26 min.
=1	=1
4r	.
2r	.
=2	=2
2r	.
4r	.
=3	=3
{4f	{Sur
4a	l'eau
4cc	bleue
=4	=4
8b-	et
8a	pro-
4a	-fon-
4g	-de,
=5	=5
8g	Nous
8a	al-
4b-	-lons
8cc	voy-
8g	-a-
=6	=6
2.a}	-geant,}
=7	=7
{4a	{En-
4cc	-vi-
4ee	-ron-
=8	=8
8dd	-nant
8cc	le
4cc	mon-
4bn	-de
=9	=9
8bn	D'un
8cc	sil-
4dd	-la-
8ee	-ge
8bn	d'ar-
=10	=10
2cc}	-gent,}
{4cc	{Des
=11	=11
4.cc	I^-
8cc	-les
8bn	de
8cc	la
=12	=12
2dd	Son-
4dd}	-de,}
=13	=13
{4dd	{De
8dd	l'Inde
8dd	au
8cc	ciel
8dd	bru^-
=14	=14
2ee-}	-le/,}
{8ee-	{Jus-
8ee-	-qu'au
=15	=15
2ee-	po^-
8dd	-le
8ee-	ge-
=16	=16
2.een}	-le/,}
=17	=17
{8g	{Jus-
8a	-qu'au
(8b-	po^-
8cc)	|
8dd	-le
8ee	ge-
=18	=18
[2.ff	-le/!
=19	=19
2.ff]}	|}
*-	*-
